X: 1752
T: Norm McConnell's Lancers Set Tune
B: australian traditional tunes wiki
M:4/4
L:1/8
R: Step Dance
Q: 1/4=100
K:G
V:1 
"G"G2A2 GB DE|"C"GG/G/ GA "D"BdA2|AA F/E/D AA F/E/D|d/d/z/d/ ed "G"B3A|
"G"BA BA DD/G/ BD|"C"EG/G/ GA Bd "D"A2|AA F/E/D AA F/E/D|B/dd/ ed"G"G4|
"G"B/d/z/d/ ed G3G|"D"FA A>G FDD2|"C"cc c>A "G/B"BB B>G|"Am"Ad d^c "D"d4|
"G"B/d/z/d/ ed G3G|"D"FA A>G FDD2|"C"E[Ec]z[Ec] "G/B"[DB][DB][D2B2]|"D"[DA][DA] F/E/F "G"[G4D4]||
% abcbook-tune_id 6342d53a72b590b0fe37b51e


% abcbook-boost 0
% abcbook-tablature 
% abcbook-transpose 
% abcbook-lastupdated 1665324381806
% abcbook-soundfonts 
% abcbook-repeats 1
% NFF Book 2006

